X:946
T:Reel 946
M:4/4
K:Amaj
L:1/8
E|A2AE CA,CE|AGAB cABG|A2EA CDEC|B,CDE CA,A,B,|A2EA CA,EC|A2cA BAFG|A2EG FAEC|DFED CA,A,|d|cABG AGFE|CEAE CB,B,z|cABG AGFE|DCB,G, E,A,A,B,|cABG AGFA|CEB,D CA,A,E|CEFG ABcd|ecBd cAA|
